X:1
T:Title
%%score { ( 1 3 ) | ( 2 4 ) }
L:1/8
M:3/4
K:F
V:1 treble nm="Grand Piano"
V:3 treble 
V:2 bass 
V:4 bass 
V:1
 z2 z2[Q:1/4=80] D>_E | F>B B3 G | _E6 | A2 z2 z2 |[M:5/8] D->[DB] [^CG]3 |[M:1/8] [B,D]/[C_E]/ | %6
[M:3/4] [DF]>[Fd] [DB]3 G | [CFA]>[EB] [Fc]3 c/c/ | c>d c3 [EG] |[M:5/8] [DB]>A F3 | %10
[M:4/4] F2 _E2- Ecdc | z2 F6 | [F,DF]2 [DB]2- [DB][DB][B,D][B,D] |[M:3/4] [B,^CE][B,CE] [A,=CF]4- | %14
[M:1/4] [A,CF]2 | [A,_EF]2 |[M:4/4] [Dd]3 [Dc] [DB][DF][^CE][DF] | %17
[M:17/16] z/ z/ z F-<F_E3/2GAB[Q:1/4=79][Q:1/4=78][Q:1/4=76][Q:1/4=75][Q:1/4=74][Q:1/4=73][Q:1/4=72][Q:1/4=71][Q:1/4=69][Q:1/4=68][Q:1/4=67] | %18
 F/-F/-F/-F/-F/-F/-F/-F-<F z/ z/ z/ z/ z[Q:1/4=66][Q:1/4=65][Q:1/4=64][Q:1/4=62][Q:1/4=61] | %19
[M:3/4] [DB]6 |] %20
V:2
 z2 z2 B,>C | B,,2 [F,,F,]4 | z z/ B,/ z2 z G | z z/[K:treble] c/[K:bass] z2 z ^F | %4
[M:5/8] z z/ F,/ [B,,E,]3 |[M:1/8] [B,,F,] |[M:3/4] [B,,B,]2 z2 z D | z z/ G,/ A,3[K:treble] F/F/ | %8
 G,2- [G,E]3 B, |[M:5/8] z z/ C/ [F,A,C]3 | %10
[M:4/4] [F,B,D]2 [F,A,C]2- [F,A,C][F,A,_E][F,A,F][F,A,E] | [F,C_E][F,A,E] z D, _E,=E, F,2 | %12
 B,,2 [B,,F,]2- [B,,F,][B,,F,][G,,G,][G,,G,] |[M:3/4] ^F,,F,, =F,,4- |[M:1/4] F,,2 | F,,2 | %16
[M:4/4] [B,,F,]3 [B,,F,] [B,,F,][B,,B,][B,,B,][B,,B,] | %17
[M:17/16] [_E,B,_E]-<[E,B,E][D,=B,]-<[D,B,][C,C]3/2[K:treble]EFG | %18
 D/-D/-D/-D/-D/-D/-D/-D-<D z/ z/ z/ z/ z |[M:3/4] [B,,F,]6 |] %20
V:3
 x6 | [F,D-]2 D4 | [CA]>G [F,A,F]4 | _E2- [A,EG]4 |[M:5/8] [B,F]2 z z2 |[M:1/8] x |[M:3/4] x6 | %7
 x6 | E2 z2 z2 |[M:5/8] E2 z z2 |[M:4/4] x8 | AG[B,D]B, C^C D2 | x8 |[M:3/4] x6 |[M:1/4] x2 | x2 | %16
[M:4/4] x8 |[M:17/16] G/-G/-G/-G/-G/-G/-G/-G-<G z/ z/ z/ z/ z | z B,B,B,B,3/2Bc>A |[M:3/4] x6 |] %20
V:4
 x6 | x6 | [F,,F,]2 F,,4 | [F,,F,]2[K:treble][K:bass] F,,4 |[M:5/8] B,,2 z z2 |[M:1/8] x | %6
[M:3/4] z2 [B,,F,]4 | C,6[K:treble] | C,6 |[M:5/8] C,2 z z2 |[M:4/4] x8 | z2 B,,6 | x8 | %13
[M:3/4] x6 |[M:1/4] x2 | x2 |[M:4/4] x8 |[M:17/16] x11/2[K:treble] x3 | %18
 z F,D,G,F,3/2[F,B,D][F,A,_E]>[F,E] |[M:3/4] x6 |] %20

